epam-assets/icon-sources/18/communication-phone_mobile.svg

<svg width="18" height="18" viewBox="0 0 18 18" fill="none" xmlns="http://www.w3.org/2000/svg">
<g id="18/communication-phone_mobile">
<path id="icon" d="M5.25 17.25C4.8375 17.25 4.4845 17.1033 4.191 16.8097C3.897 16.5157 3.75 16.1625 3.75 15.75V2.25C3.75 1.8375 3.897 1.48425 4.191 1.19025C4.4845 0.89675 4.8375 0.75 5.25 0.75H12.75C13.1625 0.75 13.5157 0.89675 13.8097 1.19025C14.1033 1.48425 14.25 1.8375 14.25 2.25V15.75C14.25 16.1625 14.1033 16.5157 13.8097 16.8097C13.5157 17.1033 13.1625 17.25 12.75 17.25H5.25ZM5.25 13.5H12.75V4.5H5.25V13.5Z" fill="#6C6F80"/>
</g>
</svg>

<svg xmlns="http://www.w3.org/2000/svg" width="18" height="18" fill="none" viewBox="0 0 18 18">
  <path fill="#6C6F80" d="M5.25 17.25c-.412 0-.766-.147-1.059-.44a1.445 1.445 0 0 1-.441-1.06V2.25c0-.413.147-.766.441-1.06.293-.293.647-.44 1.059-.44h7.5c.412 0 .766.147 1.06.44.293.294.44.647.44 1.06v13.5c0 .413-.147.766-.44 1.06a1.45 1.45 0 0 1-1.06.44h-7.5Zm0-3.75h7.5v-9h-7.5v9Z"/>
</svg>
